to star [] repeat 5 [ fd 100; rt 144; ]; end;
setcolor 255,0,0;
star();
pu;
fd 150;
lt 90;
fd 150;
pd;
setcolor 0,0,255;
star();
pu;
lt 90;
fd 400;
pd;
setcolor 0,255,0;
repeat 8 [repeat 4 [rt 90; fd 100;]; bk 100; lt 45;];
pu;
lt 90;
fd 400;
TO kwadrat [:bok] REPEAT 4 [FD :bok; RT 90;]; END;
pd;
setcolor 255,255,255;
kwadrat(50);